icon-themes/breeze_svg/cmd/sc_newwindow.svg

<svg viewBox="0 0 16 16" xmlns="http://www.w3.org/2000/svg">/&gt;<path d="m2 2v12h3v-1h-2v-9h10v1h1v-3zm4 4v8h8v-8zm1 2h6v5h-6z" fill="#4d4d4d"/></svg>

<svg xmlns="http://www.w3.org/2000/svg" viewBox="0 0 16 16">
     />
 <path 
     style="fill:#4d4d4d" 
     d="M 2 2 L 2 14 L 5 14 L 5 13 L 3 13 L 3 4 L 13 4 L 13 5 L 14 5 L 14 2 L 2 2 z M 6 6 L 6 14 L 14 14 L 14 6 L 6 6 z M 7 8 L 13 8 L 13 13 L 7 13 L 7 8 z "
     />
 </svg>
